X: 2063
T: Lassie I'll come near you.   a Strathspey.
%R: air, strathspey
B: Niel Gow & Sons "Complete Repository" v.2 p.6 #3 (and top 2 staves of p.7)
Z: 2022 John Chambers <jc:trillian.mit.edu>
M: C
L: 1/8
Q: "VERY SLOW"
K: Gm
% - - - - - - - - - -
% Voice 1 reformatted for 3 4-bar lines, to fit well with most ABC formatter.
V: 1 staves=2
D |\
~G>A ~B>c A2FA | G2Tg>a g2d>=e | (3f>gf (3f>=ed (3c>BA F>D | (3G>AB (A/B/)(c/d/) TA2 G :|
(d//=e//^f/) | gd (_e/d/c/d/) TA2F (d//=e//^f/) |\
gG ga {ga}b2a>g | Tf>g fd c/B/A/G/ F>[AD] | TG>A B>c TA2 G (d//=e//^f/) ||
gd (_e/d/c/d/) TA2G (d//=e//^f/) | gG ga {ga}b2 ag |\
(3f>gf (3f>=ed (3cBA F>D | G,3z/A,/ B,3z/C/ | TA,4 G,3 |]
% - - - - - - - - - -
% Voice 2 preserves the staff layout in the book.
V: 2 clef=bass middle=d
z | g3=e f2f2 | b3a g3c' | a2b2 a2f2 | g2d2 G3 :| z | g2ab =f2fz |
g3d g2ab | a3b ac'fz | g^f ge d2Gz || g2ab =f2fz | g3^f g2ab | [a2c'2][b2c'2] [f2c'2][ac']z | G4 D4 | d4 G3 |]


